flaticon/medical/teeth-7.svg

<svg xmlns="http://www.w3.org/2000/svg" width="32" height="32" viewBox="0 0 24 24">
    <path d="M12.398438 4.800781C12.398438 5.019531 12.222656 5.199219 12 5.199219 11.777344 5.199219 11.601562 5.019531 11.601562 4.800781 11.601562 4.578125 11.777344 4.398438 12 4.398438 12.222656 4.398438 12.398438 4.578125 12.398438 4.800781zM14 4.800781C14 5.019531 13.820312 5.199219 13.601562 5.199219 13.378906 5.199219 13.199219 5.019531 13.199219 4.800781 13.199219 4.578125 13.378906 4.398438 13.601562 4.398438 13.820312 4.398438 14 4.578125 14 4.800781zM10.800781 4.800781C10.800781 5.019531 10.621094 5.199219 10.398438 5.199219 10.179688 5.199219 10 5.019531 10 4.800781 10 4.578125 10.179688 4.398438 10.398438 4.398438 10.621094 4.398438 10.800781 4.578125 10.800781 4.800781zM10 5.601562C10 5.820312 9.820312 6 9.601562 6 9.378906 6 9.199219 5.820312 9.199219 5.601562 9.199219 5.378906 9.378906 5.199219 9.601562 5.199219 9.820312 5.199219 10 5.378906 10 5.601562zM9.199219 6.398438C9.199219 6.621094 9.019531 6.800781 8.800781 6.800781 8.578125 6.800781 8.398438 6.621094 8.398438 6.398438 8.398438 6.179688 8.578125 6 8.800781 6 9.019531 6 9.199219 6.179688 9.199219 6.398438zM13.199219 5.601562C13.199219 5.820312 13.019531 6 12.800781 6 12.578125 6 12.398438 5.820312 12.398438 5.601562 12.398438 5.378906 12.578125 5.199219 12.800781 5.199219 13.019531 5.199219 13.199219 5.378906 13.199219 5.601562zM14.800781 5.601562C14.800781 5.820312 14.621094 6 14.398438 6 14.179688 6 14 5.820312 14 5.601562 14 5.378906 14.179688 5.199219 14.398438 5.199219 14.621094 5.199219 14.800781 5.378906 14.800781 5.601562zM15.601562 6.398438C15.601562 6.621094 15.421875 6.800781 15.199219 6.800781 14.980469 6.800781 14.800781 6.621094 14.800781 6.398438 14.800781 6.179688 14.980469 6 15.199219 6 15.421875 6 15.601562 6.179688 15.601562 6.398438zM15.601562 6.398438"/>
    <path d="M 22.945312 16.90625 C 22.976562 16.835938 23.011719 16.765625 23.042969 16.695312 C 23.117188 16.519531 23.1875 16.34375 23.253906 16.164062 C 23.296875 16.050781 23.335938 15.933594 23.375 15.816406 C 23.40625 15.71875 23.441406 15.625 23.472656 15.527344 C 23.507812 15.40625 23.539062 15.289062 23.574219 15.167969 C 23.597656 15.082031 23.621094 15 23.640625 14.917969 C 23.671875 14.792969 23.699219 14.671875 23.726562 14.546875 C 23.746094 14.460938 23.761719 14.375 23.777344 14.289062 C 23.800781 14.167969 23.824219 14.046875 23.84375 13.925781 C 23.859375 13.828125 23.875 13.730469 23.886719 13.632812 C 23.902344 13.523438 23.917969 13.410156 23.929688 13.296875 C 23.941406 13.175781 23.953125 13.050781 23.960938 12.925781 C 23.96875 12.835938 23.976562 12.746094 23.980469 12.65625 C 23.992188 12.4375 24 12.21875 24 12 C 24 11.792969 23.996094 11.589844 23.984375 11.386719 C 23.984375 11.367188 23.980469 11.347656 23.980469 11.328125 C 23.816406 8.355469 22.578125 5.589844 20.445312 3.476562 L 20.292969 3.324219 L 20.28125 3.328125 C 18.125 1.269531 15.207031 0 12 0 C 8.71875 0 5.738281 1.328125 3.570312 3.46875 L 3.5625 3.46875 L 3.382812 3.652344 C 3.300781 3.734375 3.226562 3.824219 3.144531 3.910156 C 3.132812 3.921875 3.121094 3.9375 3.109375 3.949219 C 2.988281 4.082031 2.871094 4.21875 2.757812 4.355469 C 2.75 4.363281 2.742188 4.371094 2.738281 4.378906 C 1.746094 5.582031 1.007812 6.949219 0.546875 8.414062 C 0.542969 8.421875 0.539062 8.433594 0.539062 8.445312 C 0.484375 8.613281 0.4375 8.78125 0.394531 8.949219 C 0.386719 8.972656 0.378906 9 0.375 9.023438 C 0.335938 9.179688 0.296875 9.335938 0.265625 9.496094 C 0.257812 9.53125 0.246094 9.570312 0.238281 9.609375 C 0.210938 9.757812 0.183594 9.902344 0.160156 10.050781 C 0.152344 10.101562 0.140625 10.152344 0.136719 10.203125 C 0.113281 10.339844 0.0976562 10.480469 0.0820312 10.621094 C 0.0742188 10.679688 0.0664062 10.738281 0.0585938 10.796875 C 0.046875 10.941406 0.0351562 11.082031 0.0273438 11.226562 C 0.0234375 11.28125 0.0195312 11.339844 0.015625 11.398438 C 0.00390625 11.597656 0 11.796875 0 12 C 0 12.21875 0.0078125 12.4375 0.0195312 12.652344 C 0.0234375 12.742188 0.03125 12.835938 0.0390625 12.929688 C 0.046875 13.046875 0.0585938 13.167969 0.0703125 13.285156 C 0.0820312 13.402344 0.0976562 13.519531 0.113281 13.632812 C 0.125 13.726562 0.140625 13.816406 0.152344 13.910156 C 0.175781 14.035156 0.195312 14.160156 0.222656 14.285156 C 0.238281 14.363281 0.253906 14.445312 0.269531 14.523438 C 0.296875 14.652344 0.328125 14.78125 0.359375 14.910156 C 0.375 14.984375 0.398438 15.054688 0.417969 15.128906 C 0.453125 15.257812 0.488281 15.386719 0.527344 15.515625 C 0.546875 15.589844 0.574219 15.660156 0.597656 15.734375 C 0.640625 15.859375 0.679688 15.984375 0.722656 16.109375 C 0.753906 16.191406 0.789062 16.277344 0.824219 16.359375 C 0.898438 16.550781 0.976562 16.738281 1.0625 16.925781 C 1.109375 17.027344 1.152344 17.128906 1.203125 17.230469 C 1.214844 17.257812 1.222656 17.28125 1.238281 17.304688 L 1.363281 17.5625 L 1.371094 17.558594 C 3.378906 21.382812 7.390625 24 12 24 C 16.601562 24 20.601562 21.398438 22.613281 17.585938 L 22.621094 17.585938 L 22.730469 17.375 C 22.742188 17.34375 22.753906 17.316406 22.769531 17.285156 C 22.832031 17.160156 22.890625 17.035156 22.945312 16.90625 Z M 23.183594 12.597656 C 23.179688 12.691406 23.167969 12.78125 23.164062 12.875 C 23.15625 12.976562 23.148438 13.078125 23.136719 13.179688 C 23.125 13.292969 23.109375 13.410156 23.09375 13.523438 C 23.082031 13.601562 23.074219 13.675781 23.0625 13.75 C 23.042969 13.875 23.019531 13.996094 22.996094 14.121094 C 22.984375 14.1875 22.96875 14.253906 22.957031 14.320312 C 22.929688 14.441406 22.902344 14.5625 22.871094 14.683594 C 22.855469 14.75 22.839844 14.816406 22.820312 14.882812 C 22.789062 15 22.757812 15.117188 22.722656 15.230469 C 22.699219 15.304688 22.675781 15.378906 22.652344 15.453125 C 22.617188 15.558594 22.582031 15.664062 22.542969 15.769531 C 22.511719 15.855469 22.480469 15.941406 22.445312 16.027344 C 22.410156 16.117188 22.375 16.210938 22.339844 16.300781 C 22.292969 16.40625 22.246094 16.511719 22.199219 16.613281 C 22.171875 16.675781 22.144531 16.738281 22.117188 16.796875 C 21.050781 16.796875 20.140625 16.550781 19.410156 16.0625 C 18.367188 15.371094 17.589844 13.5625 17.597656 12.726562 C 17.613281 11.011719 17.707031 8.496094 18.34375 6.484375 C 18.804688 5.035156 19.21875 4.460938 20.035156 4.210938 C 21.613281 5.835938 22.703125 7.941406 23.066406 10.28125 C 23.066406 10.289062 23.070312 10.292969 23.070312 10.300781 C 23.09375 10.460938 23.113281 10.625 23.132812 10.789062 C 23.136719 10.816406 23.140625 10.839844 23.140625 10.867188 C 23.15625 11.019531 23.167969 11.171875 23.175781 11.324219 C 23.179688 11.359375 23.183594 11.398438 23.183594 11.433594 C 23.195312 11.621094 23.199219 11.808594 23.199219 12 C 23.199219 12.199219 23.195312 12.398438 23.183594 12.597656 Z M 19.40625 3.609375 C 18.460938 4.054688 18.003906 4.914062 17.585938 6.242188 C 17.421875 6.75 17.292969 7.308594 17.183594 7.910156 C 17.027344 7.28125 16.859375 6.640625 16.664062 6.011719 C 16.003906 3.910156 14.390625 2.828125 11.871094 2.800781 C 11.84375 2.800781 11.8125 2.800781 11.785156 2.800781 C 9.363281 2.800781 7.765625 3.871094 7.160156 5.902344 C 6.894531 6.789062 6.742188 7.703125 6.636719 8.617188 C 6.445312 7.648438 6.214844 6.683594 5.957031 5.789062 C 5.699219 4.898438 5.164062 4.238281 4.371094 3.808594 C 6.375 1.945312 9.054688 0.800781 12 0.800781 C 14.835938 0.800781 17.429688 1.863281 19.40625 3.609375 Z M 7.203125 11.351562 L 7.246094 10.785156 C 7.363281 9.230469 7.484375 7.621094 7.925781 6.128906 C 7.941406 6.082031 7.960938 6.042969 7.976562 5.996094 C 7.984375 5.996094 7.992188 6 8 6 C 8.222656 6 8.398438 5.820312 8.398438 5.601562 C 8.398438 5.488281 8.355469 5.390625 8.28125 5.316406 C 8.34375 5.210938 8.398438 5.105469 8.46875 5.007812 C 8.539062 5.121094 8.65625 5.199219 8.800781 5.199219 C 9.019531 5.199219 9.199219 5.019531 9.199219 4.800781 C 9.199219 4.652344 9.113281 4.527344 8.992188 4.457031 C 9.085938 4.378906 9.179688 4.296875 9.28125 4.230469 C 9.355469 4.332031 9.464844 4.398438 9.601562 4.398438 C 9.820312 4.398438 10 4.222656 10 4 C 10 3.960938 9.988281 3.929688 9.980469 3.894531 C 10.296875 3.777344 10.640625 3.6875 11.027344 3.644531 C 10.894531 3.707031 10.800781 3.84375 10.800781 4 C 10.800781 4.222656 10.980469 4.398438 11.199219 4.398438 C 11.421875 4.398438 11.601562 4.222656 11.601562 4 C 11.601562 3.824219 11.484375 3.675781 11.324219 3.625 C 11.476562 3.613281 11.621094 3.601562 11.78125 3.601562 C 11.808594 3.601562 11.835938 3.601562 11.863281 3.601562 C 12.128906 3.601562 12.378906 3.621094 12.621094 3.648438 C 12.492188 3.714844 12.398438 3.84375 12.398438 4 C 12.398438 4.222656 12.578125 4.398438 12.800781 4.398438 C 13.019531 4.398438 13.199219 4.222656 13.199219 4 C 13.199219 3.894531 13.160156 3.804688 13.09375 3.734375 C 13.421875 3.800781 13.726562 3.890625 14.003906 4.015625 C 14.011719 4.230469 14.183594 4.398438 14.398438 4.398438 C 14.46875 4.398438 14.527344 4.378906 14.582031 4.351562 C 14.683594 4.421875 14.78125 4.5 14.871094 4.582031 C 14.832031 4.644531 14.800781 4.71875 14.800781 4.800781 C 14.800781 5.019531 14.980469 5.199219 15.199219 5.199219 C 15.261719 5.199219 15.320312 5.183594 15.375 5.15625 C 15.59375 5.472656 15.769531 5.835938 15.898438 6.253906 C 15.957031 6.4375 16.011719 6.625 16.066406 6.8125 C 16.042969 6.808594 16.023438 6.800781 16 6.800781 C 15.777344 6.800781 15.601562 6.980469 15.601562 7.199219 C 15.601562 7.421875 15.777344 7.601562 16 7.601562 C 16.097656 7.601562 16.183594 7.5625 16.253906 7.503906 C 16.394531 8.042969 16.523438 8.585938 16.644531 9.105469 C 17.046875 10.839844 16.652344 12.675781 15.59375 14.015625 C 14.601562 15.269531 13.347656 16.460938 12.320312 17.128906 C 12.203125 17.207031 11.988281 17.222656 11.859375 17.164062 C 10.519531 16.539062 7.0625 13.15625 7.203125 11.351562 Z M 1.742188 16.492188 C 1.710938 16.417969 1.679688 16.347656 1.648438 16.273438 C 1.605469 16.164062 1.5625 16.058594 1.523438 15.949219 C 1.496094 15.882812 1.472656 15.816406 1.449219 15.75 C 1.40625 15.632812 1.367188 15.515625 1.328125 15.398438 C 1.3125 15.339844 1.292969 15.285156 1.277344 15.226562 C 1.238281 15.101562 1.199219 14.972656 1.167969 14.84375 C 1.15625 14.792969 1.140625 14.742188 1.128906 14.695312 C 1.097656 14.558594 1.0625 14.425781 1.035156 14.285156 C 1.027344 14.238281 1.019531 14.191406 1.007812 14.144531 C 0.980469 14.003906 0.957031 13.867188 0.933594 13.726562 C 0.925781 13.671875 0.917969 13.613281 0.910156 13.558594 C 0.894531 13.425781 0.875 13.292969 0.859375 13.164062 C 0.851562 13.078125 0.847656 12.992188 0.839844 12.90625 C 0.832031 12.800781 0.820312 12.695312 0.816406 12.589844 C 0.804688 12.394531 0.800781 12.195312 0.800781 12 C 0.800781 11.8125 0.804688 11.628906 0.8125 11.445312 C 0.816406 11.390625 0.820312 11.335938 0.824219 11.277344 C 0.835938 11.148438 0.84375 11.019531 0.855469 10.894531 C 0.859375 10.832031 0.871094 10.773438 0.875 10.710938 C 0.890625 10.589844 0.90625 10.464844 0.921875 10.34375 C 0.933594 10.289062 0.941406 10.230469 0.953125 10.175781 C 0.972656 10.046875 0.992188 9.921875 1.019531 9.796875 C 1.027344 9.746094 1.039062 9.699219 1.050781 9.652344 C 1.078125 9.519531 1.109375 9.382812 1.144531 9.25 C 1.152344 9.214844 1.160156 9.175781 1.171875 9.140625 C 1.210938 8.996094 1.25 8.851562 1.292969 8.707031 C 1.300781 8.683594 1.308594 8.660156 1.316406 8.632812 C 1.367188 8.480469 1.417969 8.324219 1.472656 8.171875 C 1.480469 8.160156 1.484375 8.148438 1.488281 8.136719 C 2.003906 6.742188 2.789062 5.476562 3.78125 4.402344 C 4.503906 4.722656 4.96875 5.25 5.1875 6.011719 C 5.804688 8.152344 6.28125 10.796875 6.402344 12.75 C 6.507812 14.480469 5.332031 15.683594 4.117188 16.105469 C 3.3125 16.382812 2.546875 16.582031 1.832031 16.691406 C 1.804688 16.625 1.773438 16.558594 1.742188 16.492188 Z M 12 23.199219 C 7.796875 23.199219 4.128906 20.871094 2.210938 17.4375 C 2.898438 17.3125 3.625 17.121094 4.378906 16.859375 C 5.660156 16.414062 6.902344 15.265625 7.160156 13.601562 C 8.304688 15.480469 10.453125 17.390625 11.523438 17.890625 C 11.683594 17.964844 11.867188 18 12.050781 18 C 12.300781 18 12.558594 17.933594 12.757812 17.800781 C 13.867188 17.078125 15.164062 15.847656 16.21875 14.511719 C 16.480469 14.179688 16.703125 13.816406 16.890625 13.441406 C 17.15625 14.589844 17.980469 16.074219 18.96875 16.730469 C 19.734375 17.238281 20.652344 17.523438 21.703125 17.585938 C 19.761719 20.9375 16.140625 23.199219 12 23.199219 Z M 12 23.199219"/>
</svg>

<svg xmlns="http://www.w3.org/2000/svg" width="32" height="32" viewBox="0 0 24 24">
    <path d="M12.398 4.8a.398.398 0 1 1-.796 0 .398.398 0 1 1 .796 0zm0 0M14 4.8a.4.4 0 1 1-.8-.003.4.4 0 0 1 .8.004zm0 0M10.8 4.8A.401.401 0 1 1 10 4.797a.401.401 0 0 1 .802.005zm0 0M10 5.602a.4.4 0 1 1-.8-.004.4.4 0 0 1 .8.004zm0 0M9.2 6.398a.401.401 0 1 1-.803.003.401.401 0 0 1 .802-.003zm0 0M13.2 5.602a.4.4 0 1 1-.801-.004.4.4 0 0 1 .8.004zm0 0M14.8 5.602A.401.401 0 1 1 14 5.597a.401.401 0 0 1 .802.005zm0 0M15.602 6.398a.401.401 0 1 1 0 0zm0 0"/>
    <path d="M22.945 16.906c.032-.07.067-.14.098-.21a12.515 12.515 0 0 0 .332-.88c.031-.097.066-.191.098-.289.035-.12.066-.238.101-.359.024-.086.047-.168.067-.25l.086-.371c.02-.086.035-.172.05-.258.024-.121.047-.242.067-.363.015-.098.031-.196.043-.293a8.75 8.75 0 0 0 .074-.707 12.268 12.268 0 0 0 .023-1.54c0-.019-.004-.038-.004-.058a11.909 11.909 0 0 0-3.535-7.851l-.152-.153-.012.004a11.972 11.972 0 0 0-16.71.14h-.008l-.18.184c-.082.082-.156.172-.238.258l-.036.04a11.369 11.369 0 0 0-.37.429A11.988 11.988 0 0 0 .374 9.023c-.04.157-.078.313-.11.473-.007.035-.019.074-.027.113-.027.149-.054.293-.078.442-.008.05-.02.101-.023.152-.024.137-.04.277-.055.418l-.023.176c-.012.144-.024.285-.032.43l-.011.171c-.012.2-.016.399-.016.602a12.003 12.003 0 0 0 .07 1.285c.012.117.028.235.043.348.012.094.028.183.04.277.023.125.042.25.07.375.015.078.03.16.047.238.027.13.058.258.09.387.015.074.038.145.058.219.035.129.07.258.11.387.019.074.046.144.07.218.043.125.082.25.125.375.03.082.066.168.101.25.074.192.153.38.239.567.046.101.09.203.14.304.012.028.02.051.035.075l.125.258.008-.004C3.38 21.383 7.391 24 12 24c4.602 0 8.602-2.602 10.613-6.414h.008l.11-.211a.894.894 0 0 1 .039-.09c.062-.125.12-.25.175-.379zm.239-4.308c-.004.093-.016.183-.02.277a10.322 10.322 0 0 1-.07.648c-.012.079-.02.153-.032.227-.019.125-.042.246-.066.371-.012.066-.027.133-.039.2-.027.12-.055.242-.086.363-.016.066-.031.132-.05.199-.032.117-.063.234-.098.347l-.07.223a10.12 10.12 0 0 1-.208.574l-.105.274-.14.312c-.028.063-.055.125-.083.184-1.066 0-1.976-.246-2.707-.735-1.043-.69-1.82-2.5-1.812-3.335.015-1.715.109-4.23.746-6.243.46-1.449.875-2.023 1.691-2.273a11.175 11.175 0 0 1 3.031 6.07c0 .008.004.012.004.02.024.16.043.324.063.488.004.027.008.05.008.078.015.153.027.305.035.457a9.055 9.055 0 0 1 .023.676c0 .2-.004.398-.015.598zm-3.778-8.989c-.945.446-1.402 1.305-1.82 2.633a13.058 13.058 0 0 0-.402 1.668 34.28 34.28 0 0 0-.52-1.898c-.66-2.102-2.273-3.184-4.793-3.211h-.086c-2.422 0-4.02 1.07-4.625 3.101-.265.887-.418 1.801-.523 2.715a34.437 34.437 0 0 0-.68-2.828c-.258-.89-.793-1.55-1.586-1.98a11.17 11.17 0 0 1 15.035-.2zM7.203 11.352l.043-.567c.117-1.555.238-3.164.68-4.656.015-.047.035-.086.05-.133.008 0 .016.004.024.004.223 0 .398-.18.398-.398a.395.395 0 0 0-.117-.286c.063-.105.117-.21.188-.308.07.113.187.191.332.191a.4.4 0 0 0 .398-.398.4.4 0 0 0-.207-.344c.094-.078.188-.16.29-.227a.389.389 0 0 0 .32.168A.398.398 0 0 0 10 4c0-.04-.012-.07-.02-.105.317-.118.66-.208 1.047-.25a.395.395 0 0 0 .172.753.395.395 0 1 0 .125-.773c.153-.012.297-.023.457-.023h.082c.266 0 .516.02.758.046a.397.397 0 0 0-.223.352c0 .223.18.398.403.398A.398.398 0 0 0 13.199 4a.378.378 0 0 0-.105-.266c.328.067.633.157.91.282a.394.394 0 0 0 .578.336c.102.07.2.148.29.23a.416.416 0 0 0-.071.219.4.4 0 0 0 .398.398.39.39 0 0 0 .176-.043c.219.317.395.68.523 1.098.059.184.114.371.168.559-.023-.004-.043-.012-.066-.012a.398.398 0 0 0-.398.398c0 .223.175.403.398.403.098 0 .184-.04.254-.098.14.539.27 1.082.39 1.601.403 1.735.008 3.57-1.05 4.91-.992 1.255-2.246 2.446-3.274 3.114a.545.545 0 0 1-.46.035c-1.34-.625-4.797-4.008-4.657-5.812zm-5.46 5.14l-.095-.219c-.043-.109-.085-.214-.125-.324a4.116 4.116 0 0 1-.074-.199c-.043-.117-.082-.234-.12-.352-.016-.058-.036-.113-.052-.171a6.156 6.156 0 0 1-.109-.383c-.012-.051-.027-.102-.04-.149-.03-.136-.065-.27-.093-.41a15.62 15.62 0 0 1-.102-.559L.91 13.56c-.015-.133-.035-.266-.05-.395-.008-.086-.012-.172-.02-.258-.008-.105-.02-.21-.024-.316a13.001 13.001 0 0 1-.004-1.145l.012-.168c.012-.129.02-.257.031-.382.004-.063.016-.122.02-.184l.047-.367c.012-.055.02-.114.031-.168a5.895 5.895 0 0 1 .098-.524c.027-.132.058-.27.094-.402.007-.035.015-.074.027-.11.039-.144.078-.288.121-.433.008-.023.016-.047.023-.074.051-.153.102-.309.157-.461a11.265 11.265 0 0 1 2.309-3.77c.722.32 1.187.848 1.405 1.61.618 2.14 1.094 4.785 1.215 6.738.106 1.73-1.07 2.934-2.285 3.355-.804.278-1.57.477-2.285.586-.027-.066-.059-.132-.09-.199zM12 23.2c-4.203 0-7.871-2.328-9.79-5.762a14.599 14.599 0 0 0 2.169-.578c1.281-.445 2.523-1.593 2.781-3.257 1.145 1.878 3.293 3.789 4.363 4.289.16.074.344.109.528.109.25 0 .508-.066.707-.2 1.11-.722 2.406-1.952 3.46-3.288.262-.332.485-.696.673-1.07.265 1.148 1.09 2.632 2.078 3.288.765.508 1.683.793 2.734.856-1.941 3.352-5.562 5.613-9.703 5.613zm0 0"/>
</svg>
